P3
# Created by GIMP version 3.2.6 PNM plug-in
32 32
255
140
154
148
140
154
148
140
154
148
140
154
148
132
142
140
132
142
140
132
142
140
132
142
140
132
138
132
132
138
132
132
138
132
132
138
132
132
142
140
132
142
140
132
142
140
132
142
140
140
146
140
140
146
140
140
146
140
140
146
140
132
142
140
132
142
140
132
142
140
132
142
140
132
142
132
132
142
132
132
142
132
132
142
132
140
146
140
140
146
140
140
146
140
140
146
140
109
121
115
140
154
148
140
154
148
109
121
115
132
142
140
132
142
140
132
142
140
132
142
140
132
138
132
132
138
132
132
138
132
132
138
132
132
142
140
132
142
140
132
142
140
132
142
140
140
146
140
140
146
140
140
146
140
140
146
140
132
142
140
132
142
140
101
113
109
132
142
140
132
142
132
132
142
132
132
142
132
132
142
132
140
146
140
140
146
140
140
146
140
107
114
109
140
154
148
140
154
148
140
154
148
140
154
148
132
142
140
132
142
140
132
142
140
132
142
140
132
138
132
132
138
132
132
138
132
132
138
132
132
142
140
132
142
140
132
142
140
132
142
140
140
146
140
140
146
140
140
146
140
140
146
140
132
142
140
132
142
140
132
142
140
132
142
140
132
142
132
132
142
132
132
142
132
132
142
132
140
146
140
140
146
140
140
146
140
140
146
140
140
154
148
140
154
148
49
56
49
49
56
49
49
60
57
49
60
57
49
60
57
49
60
57
49
56
49
49
56
49
49
56
49
49
56
49
41
48
49
132
142
140
132
142
140
132
142
140
140
146
140
140
146
140
41
48
41
41
48
41
41
56
49
41
56
49
41
56
49
41
56
49
49
56
49
49
56
49
49
56
49
49
56
49
41
52
49
140
146
140
140
146
140
140
146
140
173
182
189
173
182
189
49
56
49
49
56
49
43
52
49
38
44
41
43
52
49
43
52
49
38
46
46
43
53
51
38
46
46
38
46
46
41
52
49
165
174
181
165
174
181
165
174
181
156
174
173
156
174
173
41
48
49
41
48
49
43
49
46
49
52
49
38
46
43
43
49
46
43
48
49
43
48
49
46
52
49
46
52
49
41
56
49
156
166
165
156
166
165
156
166
165
173
182
189
173
182
189
49
56
49
49
56
49
38
44
41
38
44
41
38
44
41
49
60
57
33
40
41
33
40
41
49
60
57
43
53
51
41
52
49
165
174
181
165
174
181
165
174
181
156
174
173
156
174
173
41
48
49
41
48
49
49
52
49
43
49
46
38
46
43
43
49
46
41
44
49
43
48
49
49
56
49
43
48
49
41
56
49
156
166
165
156
166
165
156
166
165
173
182
189
173
182
189
49
56
49
49
56
49
38
44
41
33
36
33
38
44
41
38
44
41
38
46
46
43
53
51
49
60
57
43
53
51
41
52
49
165
174
181
165
174
181
165
174
181
156
174
173
156
174
173
41
48
49
41
48
49
33
44
41
38
46
43
33
44
41
49
52
49
43
48
49
41
44
49
49
56
49
46
52
49
41
56
49
156
166
165
156
166
165
156
166
165
173
182
189
173
182
189
49
56
49
49
56
49
38
44
41
33
36
33
43
52
49
38
44
41
43
53
51
49
60
57
49
60
57
49
60
57
41
52
49
165
174
181
165
174
181
165
174
181
156
174
173
156
174
173
41
48
49
41
48
49
43
49
46
38
46
43
43
49
46
43
49
46
49
56
49
43
48
49
46
52
49
46
52
49
41
56
49
156
166
165
156
166
165
156
166
165
181
190
198
181
190
198
41
52
49
41
52
49
33
44
41
33
44
41
33
44
41
33
44
41
41
56
49
41
56
49
41
56
49
41
56
49
41
56
49
173
186
189
173
186
189
173
186
189
173
186
189
173
186
189
41
52
49
41
52
49
41
52
49
41
52
49
41
52
49
41
52
49
41
48
49
41
48
49
41
48
49
41
48
49
49
56
49
165
178
181
165
178
181
165
178
181
181
190
198
181
190
198
41
52
49
41
52
49
33
44
41
33
44
41
33
44
41
33
44
41
41
56
49
41
56
49
41
56
49
41
56
49
41
56
49
173
186
189
173
186
189
173
186
189
173
186
189
173
186
189
41
52
49
41
52
49
41
52
49
41
52
49
41
52
49
41
52
49
41
48
49
41
48
49
41
48
49
41
48
49
49
56
49
165
178
181
165
178
181
165
178
181
181
190
198
181
190
198
41
52
49
41
52
49
33
44
41
33
44
41
99
109
107
165
174
173
165
178
181
165
178
181
41
56
49
41
56
49
41
56
49
173
186
189
173
186
189
173
186
189
173
186
189
173
186
189
41
52
49
41
52
49
41
52
49
165
174
173
165
174
173
165
174
173
165
170
173
41
48
49
41
48
49
41
48
49
49
56
49
165
178
181
165
178
181
165
178
181
181
190
198
181
190
198
87
98
98
41
52
49
33
44
41
33
44
41
99
109
107
165
174
173
165
178
181
165
178
181
41
56
49
41
56
49
41
56
49
173
186
189
173
186
189
173
186
189
173
186
189
173
186
189
41
52
49
41
52
49
41
52
49
165
174
173
165
174
173
165
174
173
165
170
173
41
48
49
41
48
49
41
48
49
49
56
49
165
178
181
165
178
181
165
178
181
181
190
189
181
190
189
82
92
90
33
44
41
41
52
49
41
52
49
85
95
95
173
182
189
173
186
189
173
186
189
49
60
57
49
60
57
49
60
57
181
190
189
181
190
189
181
190
189
181
195
198
181
195
198
49
60
57
49
60
57
49
56
49
165
174
181
165
174
181
165
174
181
165
174
181
41
52
49
41
52
49
41
52
49
49
60
57
165
182
189
165
182
189
165
182
189
181
190
189
181
190
189
82
92
90
33
44
41
41
52
49
41
52
49
85
95
95
173
182
189
173
186
189
173
186
189
49
60
57
49
60
57
49
60
57
181
190
189
181
190
189
181
190
189
181
195
198
181
195
198
49
60
57
49
60
57
49
56
49
165
174
181
165
174
181
165
174
181
165
174
181
41
52
49
41
52
49
41
52
49
49
60
57
165
182
189
165
182
189
165
182
189
181
190
189
181
190
189
82
92
90
33
44
41
41
52
49
41
52
49
41
52
49
41
52
49
49
60
57
49
60
57
49
60
57
49
60
57
49
60
57
181
190
189
181
190
189
181
190
189
181
195
198
181
195
198
49
60
57
49
60
57
49
56
49
49
56
49
49
56
49
49
56
49
41
52
49
41
52
49
41
52
49
41
52
49
49
60
57
165
182
189
165
182
189
165
182
189
181
190
189
181
190
189
82
92
90
33
44
41
41
52
49
41
52
49
41
52
49
41
52
49
49
60
57
49
60
57
49
60
57
49
60
57
49
60
57
181
190
189
181
190
189
181
190
189
181
195
198
181
195
198
49
60
57
49
60
57
49
56
49
49
56
49
49
56
49
49
56
49
41
52
49
41
52
49
41
52
49
41
52
49
49
60
57
165
182
189
165
182
189
165
182
189
131
144
145
173
186
189
49
60
57
49
60
57
41
48
41
41
48
41
41
48
41
41
48
41
49
56
49
49
56
49
49
56
49
49
56
49
49
56
49
181
190
198
181
190
198
181
190
198
181
190
189
181
190
189
49
60
49
49
60
49
41
48
49
41
48
49
41
48
49
41
48
49
41
48
41
41
48
41
41
48
41
41
48
41
49
60
57
173
182
189
173
182
189
131
141
145
173
186
189
173
186
189
49
60
57
49
60
57
41
48
41
41
48
41
41
48
41
41
48
41
49
56
49
49
56
49
49
56
49
49
56
49
49
56
49
181
190
198
181
190
198
181
190
198
181
190
189
181
190
189
49
60
49
49
60
49
41
48
49
41
48
49
41
48
49
41
48
49
41
48
41
41
48
41
41
48
41
41
48
41
49
60
57
173
182
189
173
182
189
173
182
189
173
186
189
173
186
189
90
102
101
90
102
101
115
121
123
90
96
95
115
121
123
115
121
123
115
121
115
115
121
115
115
121
115
115
121
115
93
100
98
181
190
198
137
145
148
137
145
148
137
146
142
137
146
142
49
60
49
93
103
95
115
130
123
90
102
98
90
102
98
90
102
98
90
105
107
90
105
107
90
105
107
90
105
107
90
100
101
173
182
189
173
182
189
173
182
189
173
186
189
173
186
189
49
60
57
49
60
57
41
48
41
41
48
41
41
48
41
41
48
41
49
56
49
49
56
49
49
56
49
49
56
49
49
56
49
181
190
198
137
145
148
137
145
148
137
146
142
181
190
189
49
60
49
49
60
49
41
48
49
41
48
49
41
48
49
41
48
49
41
48
41
41
48
41
41
48
41
41
48
41
49
60
57
173
182
189
173
182
189
173
182
189
173
182
189
173
182
189
49
60
57
49
60
57
41
48
49
49
56
49
49
56
49
46
53
49
46
54
51
51
57
54
46
54
51
51
57
54
49
60
57
173
190
189
173
190
189
173
190
189
173
190
189
173
190
189
41
52
49
41
52
49
43
49
46
43
49
46
49
52
49
43
49
46
41
52
51
41
52
51
41
52
51
41
48
46
49
60
49
165
182
181
165
182
181
165
182
181
173
182
189
173
182
189
49
60
57
49
60
57
46
53
49
43
50
49
41
48
49
49
56
49
51
57
54
41
52
49
46
54
51
51
57
54
49
60
57
173
190
189
173
190
189
173
190
189
173
190
189
173
190
189
41
52
49
41
52
49
43
49
46
43
49
46
49
52
49
49
52
49
41
56
57
41
48
46
41
44
41
41
48
46
49
60
49
165
182
181
165
182
181
165
182
181
173
182
189
173
182
189
49
60
57
49
60
57
41
48
49
46
53
49
43
50
49
49
56
49
46
54
51
41
52
49
46
54
51
57
60
57
49
60
57
173
190
189
173
190
189
173
190
189
173
190
189
173
190
189
41
52
49
41
52
49
43
49
46
38
46
43
49
52
49
49
52
49
41
52
51
41
44
41
41
44
41
41
52
51
49
60
49
165
182
181
165
182
181
165
182
181
173
182
189
173
182
189
49
60
57
49
60
57
49
56
49
41
48
49
49
56
49
43
50
49
46
54
51
57
60
57
51
57
54
51
57
54
49
60
57
173
190
189
173
190
189
173
190
189
173
190
189
173
190
189
41
52
49
41
52
49
43
49
46
33
44
41
43
49
46
43
49
46
41
52
51
41
52
51
41
48
46
41
52
51
49
60
49
165
182
181
165
182
181
165
182
181
173
182
189
173
182
189
41
56
49
41
56
49
46
55
49
41
48
41
46
55
49
41
48
41
57
69
66
51
60
54
51
60
54
54
64
60
49
60
57
181
190
189
181
190
189
181
190
189
181
190
198
181
190
198
41
48
49
41
48
49
33
44
41
33
36
33
33
36
33
33
44
41
38
45
38
43
50
43
49
56
49
43
50
43
49
60
57
165
182
181
165
182
181
165
182
181
173
182
189
173
182
189
85
98
95
41
56
49
41
48
41
41
48
41
46
55
49
46
55
49
57
69
66
54
64
60
51
60
54
49
56
49
49
60
57
181
190
189
181
190
189
181
190
189
181
190
198
181
190
198
41
48
49
41
48
49
33
36
33
33
36
33
33
36
33
33
44
41
43
50
43
38
45
38
38
45
38
49
56
49
49
60
57
165
182
181
165
182
181
165
182
181
173
182
189
173
182
189
85
98
95
41
56
49
41
48
41
41
48
41
41
48
41
41
48
41
49
56
49
51
60
54
49
56
49
49
56
49
49
60
57
181
190
189
181
190
189
181
190
189
181
190
198
181
190
198
41
48
49
41
48
49
33
40
37
33
36
33
33
40
37
33
36
33
33
40
33
38
45
38
43
50
43
49
56
49
49
60
57
165
182
181
165
182
181
165
182
181
173
182
189
173
182
189
85
98
95
41
56
49
57
69
66
57
69
66
57
69
66
46
55
49
49
56
49
49
56
49
51
60
54
49
56
49
49
60
57
181
190
189
181
190
189
181
190
189
181
190
198
181
190
198
41
48
49
41
48
49
33
44
41
33
44
41
33
36
33
33
44
41
43
50
43
49
56
49
49
56
49
49
56
49
49
60
57
165
182
181
165
182
181
165
182
181
173
182
181
173
182
181
82
89
82
82
89
82
66
73
66
66
73
66
66
73
66
66
73
66
49
60
49
49
60
49
49
60
49
49
60
49
49
60
49
173
182
189
173
182
189
173
182
189
173
186
189
173
186
189
41
48
41
41
48
41
41
44
41
41
44
41
41
44
41
41
44
41
49
60
57
49
60
57
49
60
57
49
60
57
57
65
57
165
182
181
165
182
181
165
182
181
173
182
181
173
182
181
173
182
181
173
182
181
165
174
173
165
174
173
165
174
173
165
174
173
165
178
181
165
178
181
165
178
181
165
178
181
173
182
189
173
182
189
173
182
189
173
182
189
173
186
189
173
186
189
173
186
189
173
186
189
173
186
189
173
186
189
173
186
189
173
186
189
173
186
189
173
186
189
173
186
189
173
186
189
165
182
181
165
182
181
165
182
181
165
182
181
173
182
181
173
182
181
173
182
181
173
182
181
165
174
173
165
174
173
165
174
173
165
174
173
165
178
181
165
178
181
165
178
181
165
178
181
173
182
189
173
182
189
173
182
189
173
182
189
173
186
189
173
186
189
173
186
189
173
186
189
173
186
189
173
186
189
173
186
189
173
186
189
173
186
189
173
186
189
173
186
189
173
186
189
165
182
181
165
182
181
165
182
181
165
182
181
82
89
82
127
135
131
127
135
131
127
135
131
115
123
119
115
123
119
115
123
119
115
123
119
107
119
115
107
119
115
107
119
115
107
119
115
111
121
119
111
121
119
111
121
119
111
121
119
129
140
139
129
140
139
129
140
139
129
140
139
129
138
139
129
138
139
129
138
139
129
138
139
131
144
145
131
144
145
131
144
145
131
144
145
129
143
139
129
143
139
129
143
139
93
104
98
