P3
# Created by GIMP version 3.2.6 PNM plug-in
32 32
255
43
52
30
16
20
8
29
36
19
57
69
41
82
93
66
60
70
46
38
47
27
60
70
46
24
32
16
46
55
32
46
55
32
46
55
32
90
93
66
40
47
27
65
70
46
16
24
8
43
52
30
16
20
8
29
36
19
57
69
41
82
93
57
62
72
43
43
52
29
62
72
43
24
36
16
43
53
29
43
53
29
43
53
29
90
93
57
40
47
24
65
70
40
16
24
8
29
36
19
43
52
30
43
52
30
43
52
30
38
47
27
60
70
46
16
24
8
38
47
27
90
101
66
24
32
16
46
55
32
68
78
49
16
24
8
90
93
66
65
70
46
40
47
27
29
36
19
43
52
30
43
52
30
43
52
30
43
52
29
43
52
29
24
32
16
24
32
16
82
89
57
24
36
16
62
71
43
62
71
43
16
24
8
90
93
57
65
70
40
40
47
24
57
69
41
43
52
30
16
20
8
16
20
8
38
47
27
82
93
66
82
93
66
38
47
27
68
78
49
68
78
49
46
55
32
46
55
32
65
70
46
40
47
27
16
24
8
90
93
66
57
69
41
43
52
30
16
20
8
16
20
8
24
32
16
82
93
57
82
93
57
43
52
29
62
71
43
82
89
57
43
53
29
43
53
29
65
70
40
40
47
24
16
24
8
90
93
57
29
36
19
43
52
30
16
20
8
29
36
19
38
47
27
82
93
66
60
70
46
38
47
27
46
55
32
46
55
32
68
78
49
24
32
16
40
47
27
65
70
46
40
47
27
16
24
8
29
36
19
43
52
30
16
20
8
29
36
19
43
52
29
82
93
57
62
72
43
43
52
29
43
53
29
43
53
29
82
89
57
24
36
16
40
47
24
65
70
40
40
47
24
16
24
8
40
45
24
40
45
24
65
71
40
40
45
24
16
28
8
54
63
35
54
63
35
35
45
21
24
32
16
24
32
16
24
32
16
51
59
35
74
78
46
24
32
8
49
55
27
74
78
46
38
45
24
38
45
24
60
71
40
38
45
24
16
28
8
54
63
35
54
63
35
35
45
21
24
32
16
24
32
16
24
32
16
51
59
35
74
78
46
24
32
8
49
55
27
74
78
46
90
97
57
90
97
57
40
45
24
65
71
40
54
63
35
35
45
21
16
28
8
16
28
8
24
32
16
51
59
35
51
59
35
24
32
16
24
32
8
49
55
27
49
55
27
99
101
66
82
97
57
82
97
57
60
71
40
60
71
40
54
63
35
35
45
21
16
28
8
16
28
8
24
32
16
51
59
35
51
59
35
24
32
16
24
32
8
49
55
27
49
55
27
99
101
66
90
97
57
40
45
24
40
45
24
65
71
40
16
28
8
74
81
49
54
63
35
74
81
49
51
59
35
51
59
35
24
32
16
51
59
35
74
78
46
49
55
27
74
78
46
24
32
8
82
97
57
38
45
24
38
45
24
60
71
40
16
28
8
74
81
49
54
63
35
74
81
49
51
59
35
51
59
35
24
32
16
51
59
35
74
78
46
49
55
27
74
78
46
24
32
8
16
20
8
16
20
8
16
20
8
16
20
8
54
63
35
54
63
35
16
28
8
35
45
21
107
113
74
51
59
35
24
32
16
24
32
16
24
32
8
99
101
66
24
32
8
49
55
27
16
20
8
16
20
8
16
20
8
16
20
8
54
63
35
54
63
35
16
28
8
35
45
21
107
113
74
51
59
35
24
32
16
24
32
16
24
32
8
99
101
66
24
32
8
49
55
27
52
60
32
52
60
32
52
60
32
33
40
16
38
48
24
16
24
8
38
48
24
16
24
8
46
56
30
46
56
30
57
73
41
24
24
8
60
70
40
60
70
40
60
70
40
82
93
57
52
60
32
52
60
32
52
60
32
33
40
16
43
48
24
16
24
8
43
48
24
16
24
8
43
52
24
43
52
24
57
69
33
16
20
8
65
74
46
65
74
46
65
74
46
90
101
66
52
60
32
52
60
32
52
60
32
52
60
32
27
36
16
49
60
33
38
48
24
27
36
16
57
73
41
46
56
30
35
40
19
24
24
8
38
47
24
16
24
8
38
47
24
16
24
8
52
60
32
52
60
32
52
60
32
52
60
32
29
36
16
57
60
33
43
48
24
29
36
16
57
69
33
57
69
33
43
52
24
29
36
16
40
47
27
16
20
8
40
47
27
16
20
8
90
101
66
33
40
16
33
40
16
52
60
32
38
48
24
49
60
33
27
36
16
49
60
33
46
56
30
35
40
19
46
56
30
46
56
30
82
93
57
16
24
8
16
24
8
38
47
24
90
101
66
33
40
16
33
40
16
52
60
32
43
48
24
57
60
33
29
36
16
57
60
33
43
52
24
29
36
16
43
52
24
43
52
24
90
101
66
16
20
8
16
20
8
40
47
27
33
40
16
52
60
32
33
40
16
71
80
49
49
60
33
49
60
33
49
60
33
49
60
33
46
56
30
35
40
19
46
56
30
46
56
30
38
47
24
38
47
24
82
93
57
16
24
8
33
40
16
52
60
32
33
40
16
71
80
49
57
60
33
57
60
33
57
60
33
43
48
24
43
52
24
29
36
16
57
69
33
43
52
24
40
47
27
40
47
27
65
74
46
16
20
8
99
105
66
49
56
27
49
56
27
24
32
8
57
69
41
43
52
30
43
52
30
29
36
19
66
77
49
16
28
8
16
28
8
32
44
21
41
44
24
41
44
24
57
61
35
41
44
24
90
101
66
68
76
46
46
52
27
24
28
8
57
69
41
43
52
30
43
52
30
29
36
19
74
81
49
24
32
16
24
32
16
24
32
16
46
53
29
46
53
29
46
53
29
24
32
16
49
56
27
74
80
46
24
32
8
49
56
27
43
52
30
43
52
30
29
36
19
57
69
41
16
28
8
49
60
35
49
60
35
49
60
35
41
44
24
73
79
46
57
61
35
90
97
57
46
52
27
68
76
46
24
28
8
46
52
27
43
52
30
43
52
30
29
36
19
43
52
30
24
32
16
40
48
27
40
48
27
57
64
38
46
53
29
68
75
43
68
75
43
90
97
57
74
80
46
24
32
8
74
80
46
24
32
8
43
52
30
43
52
30
29
36
19
43
52
30
49
60
35
32
44
21
32
44
21
32
44
21
90
97
57
57
61
35
90
97
57
57
61
35
90
101
66
24
28
8
68
76
46
24
28
8
43
52
30
43
52
30
29
36
19
43
52
30
57
64
38
40
48
27
40
48
27
24
32
16
90
97
57
46
53
29
90
97
57
46
53
29
49
56
27
74
80
46
74
80
46
24
32
8
57
69
41
16
20
8
57
69
41
16
20
8
32
44
21
49
60
35
32
44
21
32
44
21
57
61
35
73
79
46
41
44
24
73
79
46
46
52
27
68
76
46
68
76
46
24
28
8
57
69
41
16
20
8
57
69
41
16
20
8
40
48
27
57
64
38
24
32
16
24
32
16
46
53
29
68
75
43
46
53
29
90
97
57
43
52
30
16
20
8
29
36
19
57
69
41
68
76
49
68
76
49
46
56
32
68
76
49
33
40
16
49
56
29
49
56
29
33
40
16
90
97
57
40
45
24
65
71
40
16
20
8
29
36
19
16
20
8
29
36
19
57
69
41
82
93
66
60
70
46
38
47
27
60
70
46
33
36
16
52
57
32
52
57
32
33
36
16
82
93
57
38
47
24
60
70
40
16
24
8
29
36
19
43
52
30
43
52
30
43
52
30
46
56
32
46
56
32
24
36
16
24
36
16
82
89
57
33
40
16
49
56
29
65
72
43
16
20
8
90
97
57
65
71
40
40
45
24
29
36
19
43
52
30
43
52
30
43
52
30
38
47
27
60
70
46
16
24
8
38
47
27
90
101
66
33
36
16
52
57
32
71
79
49
16
24
8
82
93
57
60
70
40
38
47
24
57
69
41
43
52
30
16
20
8
16
20
8
24
36
16
90
97
66
90
97
66
46
56
32
65
72
43
82
89
57
49
56
29
49
56
29
65
71
40
40
45
24
16
20
8
90
97
57
57
69
41
43
52
30
16
20
8
16
20
8
38
47
27
82
93
66
82
93
66
38
47
27
71
79
49
71
79
49
52
57
32
52
57
32
60
70
40
38
47
24
16
24
8
82
93
57
29
36
19
43
52
30
16
20
8
29
36
19
46
56
32
90
97
66
68
76
49
46
56
32
49
56
29
49
56
29
82
89
57
33
40
16
40
45
24
65
71
40
40
45
24
40
45
24
29
36
19
43
52
30
16
20
8
29
36
19
38
47
27
82
93
66
60
70
46
38
47
27
52
57
32
52
57
32
71
79
49
33
36
16
38
47
24
60
70
40
38
47
24
16
24
8
40
48
27
40
48
27
65
72
46
40
48
27
16
28
8
54
63
35
54
63
35
35
45
21
24
32
16
24
32
16
24
32
16
51
59
35
49
56
32
24
32
16
49
56
32
74
80
49
38
45
24
38
45
24
60
71
40
38
45
24
16
28
8
54
63
35
54
63
35
35
45
21
24
32
16
24
32
16
24
32
16
51
59
35
74
78
46
24
32
8
49
55
27
74
78
46
90
97
66
90
97
66
40
48
27
65
72
46
54
63
35
35
45
21
16
28
8
16
28
8
24
32
16
51
59
35
51
59
35
24
32
16
24
32
16
49
56
32
49
56
32
99
105
66
82
97
57
82
97
57
60
71
40
60
71
40
54
63
35
35
45
21
16
28
8
16
28
8
24
32
16
51
59
35
51
59
35
24
32
16
24
32
8
49
55
27
49
55
27
99
101
66
90
97
66
40
48
27
40
48
27
65
72
46
16
28
8
74
81
49
54
63
35
74
81
49
51
59
35
51
59
35
24
32
16
51
59
35
74
80
49
49
56
32
74
80
49
24
32
16
82
97
57
38
45
24
38
45
24
60
71
40
16
28
8
74
81
49
54
63
35
74
81
49
51
59
35
51
59
35
24
32
16
51
59
35
74
78
46
49
55
27
74
78
46
24
32
8
16
24
8
16
24
8
16
24
8
16
24
8
54
63
35
54
63
35
16
28
8
35
45
21
107
113
74
51
59
35
24
32
16
24
32
16
24
32
16
99
105
66
24
32
16
49
56
32
16
20
8
16
20
8
16
20
8
16
20
8
54
63
35
54
63
35
16
28
8
35
45
21
107
113
74
51
59
35
24
32
16
24
32
16
24
32
8
99
101
66
24
32
8
49
55
27
52
60
32
52
60
32
52
60
32
33
40
16
43
51
24
16
24
8
43
51
24
16
24
8
35
44
21
54
60
35
54
60
35
16
28
8
60
70
40
60
70
40
60
70
40
82
93
57
52
60
32
52
60
32
52
60
32
33
40
16
43
48
24
16
24
8
43
48
24
16
24
8
43
52
24
43
52
24
57
69
33
16
20
8
65
74
46
65
74
46
65
74
46
90
101
66
52
60
32
52
60
32
52
60
32
52
60
32
29
37
16
57
65
33
43
51
24
29
37
16
74
77
49
54
60
35
35
44
21
16
28
8
38
47
24
16
24
8
38
47
24
16
24
8
52
60
32
52
60
32
52
60
32
52
60
32
29
36
16
57
60
33
43
48
24
29
36
16
57
69
33
57
69
33
43
52
24
29
36
16
40
47
27
16
20
8
40
47
27
16
20
8
90
101
66
33
40
16
33
40
16
52
60
32
43
51
24
57
65
33
29
37
16
57
65
33
35
44
21
35
44
21
35
44
21
54
60
35
82
93
57
16
24
8
16
24
8
38
47
24
90
101
66
33
40
16
33
40
16
52
60
32
43
48
24
57
60
33
29
36
16
57
60
33
43
52
24
29
36
16
43
52
24
43
52
24
90
101
66
16
20
8
16
20
8
40
47
27
33
40
16
52
60
32
33
40
16
71
80
49
57
65
33
57
65
33
57
65
33
43
51
24
35
44
21
35
44
21
54
60
35
54
60
35
38
47
24
38
47
24
82
93
57
16
24
8
33
40
16
52
60
32
33
40
16
71
80
49
57
60
33
57
60
33
57
60
33
43
48
24
43
52
24
29
36
16
57
69
33
43
52
24
40
47
27
40
47
27
65
74
46
16
20
8
99
105
66
49
56
32
49
56
32
24
32
16
74
85
49
40
49
27
40
49
27
24
32
16
74
81
49
24
28
16
24
28
16
40
45
27
41
48
24
41
48
24
57
64
35
41
48
24
90
97
66
68
75
49
46
53
32
24
32
16
74
85
49
40
49
27
40
49
27
24
32
16
74
81
49
24
32
16
24
32
16
24
32
16
46
53
29
46
53
29
46
53
29
24
32
16
49
56
32
74
80
49
24
32
16
49
56
32
40
49
27
40
49
27
24
32
16
57
67
38
24
28
16
57
63
38
40
45
27
57
63
38
41
48
24
73
80
46
57
64
35
90
97
57
46
53
32
68
75
49
24
32
16
46
53
32
40
49
27
40
49
27
24
32
16
57
67
38
24
32
16
40
48
27
40
48
27
57
64
38
46
53
29
68
75
43
68
75
43
90
97
57
74
80
49
24
32
16
74
80
49
24
32
16
40
49
27
40
49
27
24
32
16
40
49
27
57
63
38
40
45
27
40
45
27
40
45
27
90
97
57
41
48
24
90
97
57
57
64
35
90
97
66
24
32
16
68
75
49
24
32
16
40
49
27
40
49
27
24
32
16
40
49
27
57
64
38
40
48
27
40
48
27
24
32
16
90
97
57
46
53
29
90
97
57
46
53
29
49
56
32
49
56
32
74
80
49
24
32
16
57
67
38
24
32
16
57
67
38
24
32
16
40
45
27
57
63
38
40
45
27
40
45
27
57
64
35
73
80
46
41
48
24
90
97
57
46
53
32
68
75
49
68
75
49
24
32
16
57
67
38
24
32
16
57
67
38
24
32
16
40
48
27
57
64
38
24
32
16
24
32
16
46
53
29
68
75
43
46
53
29
90
97
57
