P3
# Created by GIMP version 3.2.6 PNM plug-in
32 32
255
165
150
140
165
150
140
170
158
148
170
158
148
165
146
140
170
154
145
170
154
145
170
154
145
165
154
148
165
154
148
175
162
153
165
154
148
173
162
156
173
162
156
173
162
156
173
162
156
165
154
148
173
162
153
165
154
148
165
154
148
165
154
148
165
154
148
165
154
148
165
154
148
173
162
156
173
162
156
173
162
156
173
162
156
170
160
153
165
154
148
170
160
153
165
154
148
175
166
156
175
166
156
175
166
156
175
166
156
165
146
140
181
170
156
175
162
150
181
170
156
175
162
153
170
158
150
181
166
156
165
154
148
173
162
156
173
162
156
183
170
162
178
166
159
173
162
153
181
170
159
181
170
159
173
162
153
175
167
159
175
167
159
175
167
159
170
160
153
183
172
162
189
178
165
189
178
165
178
167
159
175
167
159
181
174
165
175
167
159
175
167
159
181
174
165
181
174
165
175
166
156
175
166
156
165
146
140
181
170
156
175
162
150
175
162
150
181
166
156
181
166
156
175
162
153
165
154
148
178
166
159
178
166
159
173
162
156
183
170
162
181
170
159
189
178
165
181
170
159
181
170
159
175
167
159
181
174
165
181
174
165
175
167
159
183
172
162
189
178
165
189
178
165
183
172
162
181
174
165
181
174
165
181
174
165
181
174
165
181
174
165
181
174
165
175
166
156
181
174
165
165
146
140
181
170
156
181
170
156
181
170
156
181
166
156
181
166
156
181
166
156
181
166
156
173
162
156
183
170
162
189
174
165
183
170
162
189
178
165
189
178
165
181
170
159
181
170
159
181
174
165
181
174
165
181
174
165
170
160
153
189
178
165
183
172
162
183
172
162
189
178
165
181
174
165
181
174
165
181
174
165
175
167
159
178
170
162
178
170
162
181
174
165
181
174
165
170
156
145
181
170
156
181
170
156
181
170
156
189
174
165
183
171
162
183
171
162
189
174
165
183
170
162
183
170
162
189
174
165
183
170
162
183
172
167
189
178
173
178
167
161
183
172
167
181
170
160
189
178
165
189
178
165
181
170
160
189
178
173
186
174
167
189
178
173
189
178
173
181
172
164
181
172
164
181
178
173
181
166
156
175
166
159
181
174
165
178
170
162
178
170
162
170
156
145
181
170
156
181
170
156
181
170
156
173
166
156
183
171
162
189
174
165
183
171
162
189
174
165
178
166
159
183
170
162
183
170
162
189
178
173
183
172
167
178
167
161
183
172
167
181
170
160
181
170
160
181
170
160
189
178
165
186
174
167
186
174
167
186
174
167
183
170
161
181
172
164
181
178
173
181
172
164
181
172
164
175
166
159
178
170
162
178
170
162
178
170
162
170
156
145
175
163
150
181
170
156
181
170
156
183
171
162
189
174
165
183
171
162
183
171
162
183
170
162
173
162
156
189
174
165
173
162
156
189
178
173
178
167
161
178
167
161
178
167
161
181
170
160
181
170
160
189
178
165
181
170
160
183
170
161
183
170
161
183
170
161
186
174
167
181
172
164
181
172
164
181
172
164
181
166
156
173
162
156
175
166
159
181
174
165
178
170
162
165
150
140
181
170
156
181
170
156
175
163
150
178
168
159
173
166
156
183
171
162
183
171
162
173
162
156
183
170
162
189
174
165
183
170
162
183
172
167
183
172
167
173
162
156
173
162
156
173
162
156
181
170
160
181
170
160
189
178
165
186
174
167
183
170
161
181
166
156
183
170
161
181
166
156
181
172
164
181
166
156
181
166
156
173
166
156
173
166
156
173
166
156
173
166
156
173
166
156
173
166
156
173
166
156
173
166
156
181
170
165
181
170
165
181
170
165
181
170
165
181
170
156
181
170
156
181
170
156
181
170
156
181
166
156
181
166
156
181
166
156
181
166
156
181
166
156
181
166
156
181
166
156
181
166
156
181
170
156
181
170
156
181
170
156
181
170
156
181
166
156
181
166
156
181
166
156
181
166
156
173
166
156
173
166
156
173
166
156
173
166
156
173
166
156
173
166
156
173
166
156
173
166
156
181
170
165
181
170
165
181
170
165
181
170
165
181
170
156
181
170
156
181
170
156
181
170
156
181
166
156
181
166
156
181
166
156
181
166
156
181
166
156
181
166
156
181
166
156
181
166
156
181
170
156
181
170
156
181
170
156
181
170
156
181
166
156
181
166
156
181
166
156
181
166
156
173
166
156
173
166
156
173
166
156
173
166
156
173
166
156
173
166
156
173
166
156
173
166
156
181
170
165
181
170
165
181
170
165
181
170
165
181
170
156
181
170
156
181
170
156
181
170
156
181
166
156
181
166
156
181
166
156
181
166
156
181
166
156
181
166
156
181
166
156
181
166
156
181
170
156
181
170
156
181
170
156
181
170
156
181
166
156
181
166
156
181
166
156
181
166
156
115
52
33
115
52
33
115
52
33
115
52
33
115
52
33
115
52
33
115
52
33
115
52
33
115
52
33
115
52
33
115
52
33
115
52
33
115
52
33
115
52
33
115
52
33
115
52
33
115
52
33
115
52
33
115
52
33
148
109
94
115
52
33
115
52
33
115
52
33
115
52
33
115
52
33
115
52
33
115
52
33
115
52
33
115
52
33
115
52
33
115
52
33
115
52
33
115
52
33
107
52
41
115
52
33
107
52
41
115
52
33
107
52
41
115
52
33
107
52
41
111
52
37
111
52
37
115
52
33
107
52
41
115
52
33
107
52
41
115
52
33
107
52
41
115
54
32
115
53
40
115
54
32
115
53
40
115
52
33
115
52
41
115
52
35
115
52
41
111
54
32
107
52
41
111
54
32
107
52
41
115
52
33
115
52
33
115
52
33
115
52
33
107
52
41
115
52
33
107
52
41
115
52
33
107
52
41
115
52
33
107
52
41
115
52
33
111
52
37
115
52
33
107
52
41
115
52
33
107
52
41
115
52
33
107
52
41
115
52
33
115
53
40
115
54
32
115
53
40
115
54
32
115
52
38
115
52
33
115
52
41
115
52
33
107
52
41
111
54
32
107
52
41
111
54
32
115
52
33
115
52
33
115
52
33
115
52
33
115
52
33
107
52
41
115
52
33
107
52
41
111
52
37
107
52
41
115
52
33
107
52
41
111
52
37
111
52
37
115
52
33
111
52
37
111
52
37
107
52
41
115
52
33
107
52
41
115
54
32
115
53
40
115
54
32
115
53
40
115
52
33
115
52
41
115
52
35
115
52
41
111
54
32
107
52
41
111
54
32
107
52
41
115
52
33
115
52
33
115
52
33
115
52
33
107
52
41
115
52
33
107
52
41
115
52
33
107
52
41
115
52
33
107
52
41
115
52
33
111
52
37
115
52
33
107
52
41
115
52
33
107
52
41
115
52
33
107
52
41
115
52
33
115
53
40
115
54
32
115
53
40
115
54
32
115
52
38
115
52
33
115
52
41
115
52
33
107
52
41
111
54
32
107
52
41
111
54
32
148
105
90
115
52
33
115
52
33
115
52
33
165
154
140
165
154
140
165
154
140
165
154
140
156
142
132
156
142
132
156
142
132
167
154
143
164
151
140
156
142
132
156
142
132
156
142
132
156
142
132
156
142
132
156
142
132
156
142
132
165
154
148
165
154
148
165
154
148
173
163
156
165
154
140
165
154
140
176
164
153
198
186
181
189
178
173
178
172
161
189
178
173
183
175
167
175
166
156
181
174
165
181
174
165
165
150
140
181
174
165
175
167
156
181
174
165
175
167
156
178
166
154
178
166
154
178
166
154
178
166
154
172
160
148
172
160
148
172
160
148
172
160
148
164
152
143
164
152
143
172
163
154
172
163
154
189
182
173
173
163
156
173
163
156
181
172
164
176
164
153
176
164
153
187
175
167
187
175
167
173
170
156
183
175
167
173
170
156
173
170
156
175
166
156
181
174
165
175
166
156
175
166
156
181
174
165
181
174
165
181
174
165
181
174
165
189
178
165
178
166
154
178
166
154
178
166
154
181
170
156
181
170
156
181
170
156
181
170
156
164
152
143
181
174
165
181
174
165
181
174
165
181
172
164
181
172
164
189
182
173
189
182
173
176
164
153
187
175
167
187
175
167
198
186
181
183
175
167
183
175
167
183
175
167
178
172
161
181
174
165
181
174
165
181
174
165
181
174
165
181
174
165
181
174
165
181
174
165
181
174
165
189
178
165
178
166
154
189
178
165
189
178
165
181
170
156
181
170
156
181
170
156
181
170
156
172
163
154
181
174
165
172
163
154
181
174
165
181
172
164
189
182
173
181
172
164
181
172
164
187
175
167
187
175
167
187
175
167
198
186
181
183
175
167
183
175
167
189
178
173
183
175
167
181
174
165
181
174
165
181
174
165
181
174
165
181
166
156
183
170
161
189
178
173
189
178
173
192
180
170
198
186
173
186
175
167
192
180
170
178
171
161
173
166
156
183
176
167
183
176
167
165
150
140
175
166
156
175
166
156
181
174
165
181
170
156
189
178
173
189
178
173
183
172
161
186
182
170
186
182
170
189
186
173
186
182
170
186
179
170
189
182
173
189
182
173
183
176
167
183
172
167
181
170
165
189
178
173
186
175
170
183
170
161
186
174
167
189
178
173
189
178
173
198
186
173
192
180
170
192
180
170
181
170
165
183
176
167
183
176
167
183
176
167
183
176
167
170
158
148
181
174
165
181
174
165
181
174
165
189
178
173
183
172
161
183
172
161
186
175
167
186
182
170
186
182
170
181
174
165
186
182
170
186
179
170
183
176
167
183
176
167
181
174
165
186
175
170
189
178
173
186
175
170
183
172
167
186
174
167
186
174
167
189
178
173
189
178
173
192
180
170
186
175
167
192
180
170
186
175
167
189
182
173
178
171
161
178
171
161
183
176
167
165
150
140
175
166
156
181
174
165
181
174
165
186
175
167
183
172
161
183
172
161
189
178
173
181
174
165
181
174
165
186
182
170
186
182
170
189
182
173
181
174
165
189
182
173
186
179
170
181
170
165
186
175
170
183
172
167
186
175
170
189
178
173
189
178
173
186
174
167
186
174
167
198
186
173
181
170
165
181
170
165
181
170
165
178
171
161
173
166
156
178
171
161
178
171
161
165
150
140
181
174
165
181
174
165
181
174
165
183
172
161
183
172
161
189
178
173
189
178
173
189
186
173
181
174
165
181
174
165
181
174
165
189
182
173
186
179
170
181
174
165
189
182
173
183
172
167
186
175
170
189
178
173
189
178
173
181
168
162
189
178
173
181
168
162
189
178
173
181
174
165
181
174
165
172
163
154
172
163
154
173
166
156
173
166
156
173
166
156
173
166
156
164
152
143
181
174
165
181
174
165
181
174
165
181
172
162
181
172
162
181
172
162
189
182
173
189
178
165
189
178
165
189
178
165
189
178
165
181
174
165
181
174
165
181
174
165
181
174
165
181
174
165
181
174
165
181
174
165
181
174
165
189
178
173
189
178
173
189
178
173
181
168
162
181
174
165
172
163
154
172
163
154
172
163
154
173
166
156
173
166
156
173
166
156
173
166
156
164
152
143
181
174
165
181
174
165
181
174
165
181
172
162
189
182
173
181
172
162
189
182
173
189
178
165
189
178
165
189
178
165
189
178
165
181
174
165
181
174
165
181
174
165
181
174
165
181
174
165
181
174
165
181
174
165
181
174
165
173
159
151
165
150
140
165
150
140
165
150
140
164
152
143
164
152
143
156
142
132
156
142
132
156
150
140
148
142
132
148
142
132
148
142
132
156
142
132
164
152
143
164
152
143
164
152
143
165
154
140
173
163
151
165
154
140
165
154
140
167
154
143
167
154
143
167
154
143
167
154
143
170
158
148
165
150
140
165
150
140
170
158
148
165
150
140
165
150
140
165
150
140
170
158
148
165
150
140
165
150
140
165
150
140
165
150
140
156
142
132
164
152
143
156
142
132
156
142
132
148
142
132
148
142
132
156
150
140
156
150
140
156
142
132
164
152
143
164
152
143
172
163
154
165
154
140
165
154
140
165
154
140
165
154
140
167
154
143
167
154
143
156
142
132
167
154
143
170
158
148
165
150
140
165
150
140
165
150
140
165
150
140
165
150
140
165
150
140
165
150
140
164
151
143
164
151
143
164
151
143
164
151
143
165
150
140
148
142
132
153
144
134
153
144
134
153
144
134
153
144
134
153
144
134
148
142
132
156
142
132
167
158
148
167
158
148
161
150
140
165
150
140
170
158
148
170
158
148
165
150
140
170
155
145
165
150
140
170
155
145
165
150
140
165
150
140
165
150
140
165
150
140
162
147
137
167
155
148
161
148
140
161
148
140
161
148
140
164
151
143
164
151
143
164
151
143
164
151
143
165
150
140
165
150
140
153
144
134
148
142
132
165
150
140
153
144
134
165
150
140
165
150
140
156
142
132
161
150
140
167
158
148
167
158
148
170
158
148
170
158
148
170
158
148
165
150
140
170
155
145
165
150
140
165
150
140
165
150
140
165
150
140
156
142
132
165
150
140
165
150
140
167
155
148
161
148
140
161
148
140
161
148
140
164
151
143
164
151
143
164
151
143
164
151
143
165
150
140
165
150
140
148
142
132
153
144
134
165
150
140
148
142
132
153
144
134
153
144
134
156
142
132
161
150
140
161
150
140
167
158
148
165
150
140
170
158
148
170
158
148
165
150
140
170
155
145
165
150
140
165
150
140
165
150
140
165
150
140
165
150
140
156
142
132
165
150
140
161
148
140
161
148
140
161
148
140
161
148
140
172
160
154
181
170
165
172
160
154
156
142
132
165
150
140
165
150
140
153
144
134
153
144
134
153
144
134
153
144
134
153
144
134
165
150
140
156
142
132
161
150
140
161
150
140
173
166
156
181
174
165
181
174
165
181
174
165
175
166
156
181
166
156
181
166
156
170
155
145
165
150
140
165
150
140
165
150
140
156
142
132
156
142
132
156
142
132
156
142
132
167
155
148
173
162
156
